X:2
T:Humours of Ballydehob
M:6/8
L:1/8
R:jig
N:Learned from Solstice Festival 2000 workshop
K:D
|:fdd edB|ABd edB|ABd ede|faa bag|
fdd edB|ABd edB|ABd ede|fdc d2e:|
|:faa efg|f/2g/2af edB|ABd ede|fee e2g|
faa efg|f/2g/2af edB|ABd ede|fdc d3:|
